Sources/FrostedUI/Resources/Icons.xcassets/dollarCircle20.imageset/dollar-circle-20.svg

<svg width="20" height="20" viewBox="0 0 20 20" fill="none" xmlns="http://www.w3.org/2000/svg" data-fui-icon="true">
  <path
    d="M10 0C15.5228 0 20 4.47715 20 10C20 15.5228 15.5228 20 10 20C4.47715 20 0 15.5228 0 10C0 4.47715 4.47715 0 10 0ZM10 1.5C5.30558 1.5 1.5 5.30558 1.5 10C1.5 14.6944 5.30558 18.5 10 18.5C14.6944 18.5 18.5 14.6944 18.5 10C18.5 5.30558 14.6944 1.5 10 1.5ZM10.0078 3.75C10.4218 3.75026 10.7578 4.08594 10.7578 4.5V4.95801C12.7133 5.22118 13.5552 6.49699 13.7314 7.32031C13.8179 7.72515 13.56 8.12414 13.1553 8.21094C12.7505 8.29726 12.3514 8.03852 12.2646 7.63379C12.2199 7.42593 11.906 6.70438 10.7578 6.47852V9.40137C11.3218 9.51562 11.9229 9.67095 12.4229 9.94434C12.7855 10.1427 13.1282 10.4188 13.376 10.8125C13.6257 11.2095 13.748 11.6771 13.748 12.2051C13.7476 13.4988 12.6583 14.807 10.7578 15.082V15.5C10.7578 15.9141 10.4218 16.2497 10.0078 16.25C9.5936 16.25 9.25781 15.9142 9.25781 15.5V15.085C8.40955 14.9657 7.7647 14.6473 7.28809 14.2393C6.69333 13.73 6.41192 13.1282 6.28711 12.748C6.15822 12.3549 6.37275 11.9313 6.76562 11.8018C7.15914 11.6726 7.58369 11.8868 7.71289 12.2803C7.7799 12.4843 7.93616 12.8191 8.26367 13.0996C8.47835 13.2834 8.79331 13.4628 9.25781 13.5605V10.6436C8.69348 10.5293 8.09113 10.3751 7.59082 10.1016C7.22823 9.90318 6.88541 9.62698 6.6377 9.2334C6.38785 8.83637 6.26568 8.36882 6.26562 7.84082C6.26572 6.54653 7.35737 5.23707 9.25781 4.96191V4.5C9.25781 4.08579 9.5936 3.75 10.0078 3.75ZM10.7578 13.5615C11.8938 13.3256 12.2475 12.5714 12.248 12.2051C12.248 11.9153 12.1836 11.7341 12.1064 11.6113C12.027 11.4852 11.9013 11.3691 11.7031 11.2607C11.4496 11.1221 11.1335 11.0252 10.7578 10.9385V13.5615ZM9.25781 6.4834C8.12072 6.71955 7.76574 7.47523 7.76562 7.84082C7.76568 8.13062 7.83001 8.31187 7.90723 8.43457C7.98662 8.56067 8.11255 8.67682 8.31055 8.78516C8.56428 8.92391 8.88156 9.01964 9.25781 9.10645V6.4834Z"
    fill="currentColor"
  />
</svg>

<svg xmlns="http://www.w3.org/2000/svg" width="20" height="20" fill="none" data-fui-icon="true" viewBox="0 0 20 20"><path fill="currentColor" d="M10 0c5.523 0 10 4.477 10 10s-4.477 10-10 10S0 15.523 0 10 4.477 0 10 0m0 1.5a8.5 8.5 0 1 0 0 17 8.5 8.5 0 0 0 0-17m.008 2.25a.75.75 0 0 1 .75.75v.458c1.955.263 2.797 1.539 2.973 2.362a.75.75 0 0 1-1.466.314c-.045-.208-.359-.93-1.507-1.155V9.4c.564.115 1.165.27 1.665.543.363.199.705.475.953.868q.374.599.372 1.393c0 1.294-1.09 2.602-2.99 2.877v.418a.75.75 0 0 1-1.5 0v-.415c-.848-.12-1.493-.438-1.97-.846a3.36 3.36 0 0 1-1-1.491.75.75 0 0 1 1.425-.468c.067.204.223.54.55.82.215.183.53.363.995.46v-2.916c-.565-.115-1.167-.269-1.667-.542a2.54 2.54 0 0 1-.953-.869c-.25-.397-.372-.864-.372-1.392 0-1.294 1.091-2.604 2.992-2.88V4.5a.75.75 0 0 1 .75-.75m.75 9.812c1.136-.236 1.49-.99 1.49-1.357 0-.29-.064-.47-.142-.594a1.05 1.05 0 0 0-.403-.35c-.253-.139-.57-.236-.945-.322zm-1.5-7.079c-1.137.237-1.492.992-1.492 1.358 0 .29.064.47.141.594.08.126.206.242.404.35.253.139.57.235.947.321z"/></svg>
